X:121
T:12. PAT-A-CAKE POLKA (polkas)
T:Uncle Bernard's Polka
R:Polka
M:4/4
L:1/8
K:G
"G"G2A2 "D"B2c2|"G"d2 de dc B2|"C"c2 cd cB A2|"D"B2>c2 B2A2|\
"G"G2A2 "D"B2c2|"G"d2 de d2 g2|"D"fedc B2A2|"G"G4 d4||
"G"g2g2 "Em"f2e2|"G"d2 de dc B2|"C"c2 cd cB A2|"D"B2>c2 B2d2|\
"G"g2g2 "Em"f2e2|"G"d2 de d2 g2|"D"fedc B2A2|"G"(G4 G4)||
